X:1
T:Title
%%score ( 1 2 ) { 3 | 4 }
L:1/8
Q:1/4=105
M:4/4
K:Ab
V:1 treble nm="Grand Piano, Soprano"
V:2 treble 
V:3 bass nm="Choir Pad, Work for the Lord Today"
V:4 bass 
V:1
 [CE]2 [CE]>[DF] [CA]2 [EA]>[EB] | [Ec]2 [DB]2 [CA]4 | [EA]2 [EA]>[EA] [Ec]2 [Ee]2 | [EB]6 z2 | %4
w: By~John~Wesley~Dennis * * * * *||||
 [CE]2 [CE]>[DF] [CA]2 [EA]>[EB] | [_Gc]2 [Gc]2 [Fd]4 | [Ae]2 [EA]>[FB] [Ec]2 [DB]2 | [CA]6 z2 | %8
w: ||||
 [Ae]2 [Ae]>[Ad] [Ec]2 [Ec]>[EB] | [FA]2 [DF]2 [FA]4 | [EA]2 [CA]>[DB] [Ec]2 [EB]>[EB] | %11
w: |||
 [Ec]2 [A=d]2 [Ge]4 | [Ae]2 [Ae]>[Ad] [Ec]2 [Ec]>[EB] | [FA]2 [FA]2 [Fd]4 | %14
w: |||
 [Ae]2 [EA]>[FB] [Ec]2 [DB]2 | [CA]6 z2 | e6 z2 | [EA]2 [EA]2 [Ec]4 | [FA]6 [EB]2 | %19
w: |||||
 [FA]2 [DF]2 [CE]2 [CE]>[DF] | [CA]2 [EA]>[EB] [Ec]2 [EA]>[EB] | [Ac]2 [Ac]2 [Ae]4 | %22
w: |||
 [Ae]2 [EA]>[FB] [Ec]2 [DB]2 | [CA]8 |] %24
w: ||
V:2
 x8 | x8 | x8 | x8 | x8 | x8 | x8 | x8 | x8 | x8 | x8 | x8 | x8 | x8 | x8 | x8 | A2 A>A A2 [Ac]2 | %17
 x8 | x8 | x8 | x8 | x8 | x8 | x8 |] %24
V:3
 A,2 A,>A, A,2 A,>G, | A,2 G,2 A,4 | C2 C>C A,2 A,2 | G,6 z2 | A,2 A,>A, A,2 A,>G, | A,2 A,2 A,4 | %6
 C2 A,>A, A,2 G,2 | A,6 z2 | C2 C>B, A,2 A,>A, | A,2 A,2 D4 | C2 A,>A, A,2 G,>G, | A,2 B,2 B,4 | %12
 C2 C>B, A,2 A,>A, | A,2 A,2 B,4 | C2 A,>A, A,2 G,2 | A,6 z2 | C6 A,2 | A,2 C2 A,4 | %18
 C2 C>C C2 A,2 | A,2 A,2 A,2 A,>A, | A,2 A,>G, A,2[K:treble] C>D | E2 E2 C4 | %22
 C2[K:bass] A,>A, A,2 G,2 | A,8 |] %24
V:4
 A,,2 A,,>A,, A,,2 C,>E, | z2 E,2 A,,4 | A,,2 A,,>A,, A,,2 C,2 | E,6 z2 | A,,2 A,,>A,, A,,2 C,>E, | %5
 z4 D,4 | A,,2 C,>D, E,2 E,2 | A,,6 z2 | A,2 A,>A, z2 z z/ C,/ | D,2 D,2 D,4 | A,2 z2 z2 E,>E, | %11
 z2 F,2 E,4 | A,2 A,>A, z2 z z/ C,/ | D,2 D,2 D,4 | A,,2 C,>D, E,2 E,2 | A,,6 z2 | %16
 A,2 A,>A, A,2 E,2 | C,2 E,2 z4 | F,2 F,>F, F,2 C,2 | D,2 D,2 A,,2 A,,>A,, | A,,2 C,>E, z2 A,>A, | %21
 A,2 A,2 A,4 | A,2 C,>D, E,2 E,2 | A,,8 |] %24

